icons/24/tag.svg

<svg width="24" height="24" viewBox="0 0 24 24" xmlns="http://www.w3.org/2000/svg">
  <path fill-rule="evenodd" clip-rule="evenodd" d="M4.5 3C4.10218 3 3.72064 3.15804 3.43934 3.43934C3.15804 3.72064 3 4.10218 3 4.5V11.44C3 11.837 3.158 12.219 3.44 12.5L12.19 21.25C12.4713 21.5309 12.8525 21.6887 13.25 21.6887C13.6475 21.6887 14.0287 21.5309 14.31 21.25L21.25 14.31C21.5309 14.0287 21.6887 13.6475 21.6887 13.25C21.6887 12.8525 21.5309 12.4713 21.25 12.19L12.5 3.44C12.219 3.15862 11.8377 3.00035 11.44 3H4.5ZM4.5 4.5H11.44L20.19 13.25L13.25 20.19L4.5 11.44V4.5ZM9 8C8.73478 8 8.48043 8.10536 8.29289 8.29289C8.10536 8.48043 8 8.73478 8 9C8 9.26522 8.10536 9.51957 8.29289 9.70711C8.48043 9.89464 8.73478 10 9 10C9.26522 10 9.51957 9.89464 9.70711 9.70711C9.89464 9.51957 10 9.26522 10 9C10 8.73478 9.89464 8.48043 9.70711 8.29289C9.51957 8.10536 9.26522 8 9 8Z"/>
</svg>

<svg width="24" height="24" viewBox="0 0 24 24" xmlns="http://www.w3.org/2000/svg">
  <path fill-rule="evenodd" clip-rule="evenodd" d="M4.5 3A1.5 1.5 0 003 4.5v6.94c0 .397.158.779.44 1.06l8.75 8.75a1.5 1.5 0 002.12 0l6.94-6.94a1.5 1.5 0 000-2.12L12.5 3.44A1.5 1.5 0 0011.44 3H4.5zm0 1.5h6.94l8.75 8.75-6.94 6.94-8.75-8.75V4.5zM9 8a1 1 0 100 2 1 1 0 000-2z"/>
</svg>
